X:1
T:Tom Pierce (Tam Pearse)(Widdicombe Fair)
M:6/8
L:1/8
K:C
 G| c2 c e2 c| BAG c3| ccd edc| BBc d2 G| c2 c edc| BAG A2 G/2G/2|\
 A/2 A3/2 G A/2 A3/2 G/2G/2| A/2 A3/2 G/2G/2 A/2 A3/2 G/2G/2| A/2 A3/2 G/2G/2 A2 G|\
 Afe dcB| g3 f3| e3/2 d/2 c BAB| c3- c2||
